tools/download-figma-icons/icons/solid/keys.svg

<svg width="24" height="24" viewBox="0 0 24 24" fill="none" xmlns="http://www.w3.org/2000/svg">
<path fill-rule="evenodd" clip-rule="evenodd" d="M8.58967 1.54089C10.0732 1.26189 11.5702 2.43939 12.0239 4.19364C11.6714 4.08564 11.3092 4.02114 10.9447 4.00014C10.5262 2.99439 9.64717 2.35614 8.78617 2.51889C7.76317 2.71089 7.15042 3.95889 7.41892 5.29989C7.65742 6.48189 8.50267 7.34739 9.40042 7.40364C9.64042 7.57839 9.74392 7.89189 9.65317 8.17389C9.63817 8.21739 9.62017 8.25939 9.59842 8.29839L9.54217 8.39739C8.13967 8.41014 6.81217 7.18989 6.46867 5.47839C6.09067 3.59814 7.04242 1.83189 8.58967 1.54089ZM7.86163 5.37734C8.42488 5.32634 8.99488 5.39909 9.53263 5.59034C11.3491 6.23534 12.4734 8.09309 12.2064 10.0056C11.9386 11.9188 10.3546 13.3416 8.44138 13.3881L7.88863 15.0501L6.74488 15.8001L7.20088 17.1193L6.93913 17.9083L5.82838 18.3966L6.41338 19.4878L5.06788 19.8921L5.88838 21.0666L5.72113 21.5713C5.66038 21.7528 5.52763 21.8998 5.35363 21.9756L4.24213 22.4631C4.03138 22.5561 3.78238 22.4676 3.67063 22.2598L3.08413 21.1678C2.99263 20.9976 2.97463 20.7973 3.03463 20.6158L5.75563 12.4318C4.86688 11.6796 4.33738 10.5793 4.30513 9.41684C4.27213 8.25359 4.74013 7.14284 5.58688 6.37259C5.93038 7.37384 6.61588 8.22284 7.51813 8.76734C7.87738 9.35909 8.59888 9.61484 9.23413 9.37634C9.87013 9.13709 10.2376 8.47109 10.1109 7.79084C9.98338 7.11134 9.39688 6.61184 8.71513 6.60209C8.28238 6.32309 7.97413 5.88209 7.86163 5.37734ZM19.1183 18.7723C19.3283 18.8698 19.5908 18.8323 19.7708 18.6898C20.0258 18.4798 20.0558 18.1348 19.8458 17.9098C19.6883 17.7448 19.4408 17.6848 19.2083 17.7598C18.9833 17.8348 18.8176 18.0223 18.7958 18.2473C18.7808 18.4723 18.9008 18.6748 19.1183 18.7723ZM17.1758 16.7623C17.385 16.9873 17.76 17.0023 18.0075 16.7998C18.1283 16.7023 18.2033 16.5673 18.2183 16.4248C18.2333 16.2748 18.1808 16.1323 18.0833 16.0273L17.0333 14.9023C16.8225 14.6773 16.4475 14.6623 16.2008 14.8648C15.945 15.0673 15.915 15.4123 16.1258 15.6373L17.1758 16.7623ZM14.4833 13.8898C14.7158 13.9948 15.0008 13.9573 15.1951 13.7923C15.4733 13.5748 15.5101 13.1923 15.2783 12.9448C15.1051 12.7648 14.8358 12.6973 14.5808 12.7798C14.3333 12.8623 14.1533 13.0723 14.1301 13.3123C14.1083 13.5598 14.2508 13.7848 14.4833 13.8898ZM14.4833 10.9348L20.6108 17.4823C21.1351 18.0373 21.0533 18.8998 20.4383 19.3948C19.8226 19.8973 18.9008 19.8523 18.3758 19.2973L12.2483 12.7423C12.2447 12.7423 12.241 12.7441 12.2372 12.7459C12.2333 12.7478 12.2293 12.7498 12.2251 12.7498C13.3583 11.5423 13.7858 9.91478 13.3733 8.39228C12.9683 6.87728 11.7683 5.66978 10.1783 5.15978C11.7983 4.89728 13.4033 5.51228 14.3258 6.74228C15.2408 7.97228 15.3008 9.59978 14.4833 10.9348Z" fill="black"/>
</svg>

<svg xmlns="http://www.w3.org/2000/svg" width="24" height="24" fill="none" viewBox="0 0 24 24"><path fill="currentColor" fill-rule="evenodd" d="M8.59 1.54c1.483-.278 2.98.9 3.434 2.654A4.6 4.6 0 0 0 10.944 4c-.418-1.006-1.297-1.644-2.158-1.481-1.023.192-1.636 1.44-1.367 2.78.238 1.183 1.084 2.048 1.981 2.105a.695.695 0 0 1 .198.894l-.056.1C8.14 8.41 6.812 7.19 6.47 5.477c-.378-1.88.573-3.646 2.12-3.937m-.728 3.837a3.9 3.9 0 0 1 1.67.213 4.1 4.1 0 0 1 2.674 4.416 3.9 3.9 0 0 1-3.765 3.382L7.89 15.05l-1.144.75.456 1.32-.262.788-1.11.489.584 1.09-1.345.405.82 1.175-.167.504a.67.67 0 0 1-.367.405l-1.112.487a.447.447 0 0 1-.571-.203l-.587-1.092a.7.7 0 0 1-.05-.552l2.722-8.184a4.1 4.1 0 0 1-1.45-3.015 3.96 3.96 0 0 1 1.28-3.044 4.5 4.5 0 0 0 1.932 2.394c.36.592 1.08.848 1.716.61a1.41 1.41 0 0 0 .877-1.586 1.45 1.45 0 0 0-1.396-1.189 1.97 1.97 0 0 1-.853-1.225m11.256 13.395c.21.098.473.06.653-.082.255-.21.285-.555.075-.78a.62.62 0 0 0-.638-.15.59.59 0 0 0-.412.487.53.53 0 0 0 .322.525m-1.942-2.01c.209.225.584.24.832.038a.56.56 0 0 0 .21-.375.5.5 0 0 0-.135-.398l-1.05-1.125c-.21-.225-.585-.24-.832-.037-.256.202-.286.547-.075.772zm-2.693-2.872a.68.68 0 0 0 .712-.098c.278-.217.315-.6.083-.847a.68.68 0 0 0-.697-.165.65.65 0 0 0-.45.532.58.58 0 0 0 .352.578m0-2.955 6.128 6.547c.524.555.442 1.418-.173 1.913-.615.502-1.537.457-2.062-.098l-6.128-6.555q-.005 0-.01.004-.007.004-.013.004c1.133-1.208 1.56-2.835 1.148-4.358-.405-1.515-1.605-2.722-3.195-3.232 1.62-.263 3.225.352 4.148 1.582.915 1.23.975 2.858.157 4.193" clip-rule="evenodd"/></svg>
